X: 2
T: Siobhan O'Donnell's
R: reel
M: 4/4
L: 1/8
K: Amaj
ABce ~a3 e|~f3 a fece| ~f3 e cBAF|EFAB cBAF|ECEF ABce|~f3 a fece| ~f2 ec dBcA|~B2 AB cAAG:||ABce {a}fece|fA A/A/A fAeA|fA A/A/A fAef|aefa eAce|~f3 e cBAF| ~E3 F ABce|~f2 ec dBcA|~B2 AB cAAG:||


Tune 729	Setting 729

